X: 83
T: 83. Jesu Leiden, Pein und Tod
N: Derived from chor083.krn
C: Johann Sebastian Bach
%%abc-version 2.0
%%abcx-abcm2ps-target-version 5.9.1 (29 Sep 2008)
%%abc-creator hum2abc beta
%%abcx-conversion-date 2019/03/11 17:28:18
%%abc-edited-by Craig Stuart Sapp
%%humdrum-veritas 898968941
%%humdrum-veritas-data 269141253
%%
%%barnumbers 0
L: 1/4
M: C
%%staves [1 2 3 4]
V: 1 clef=treble
V: 2 clef=treble
V: 3 clef=treble-8
V: 4 clef=bass
K: A
[V:1] cBAB | 
[V:2] AGF=E | 
[V:3] fccB | 
[V:4] F,^E,F,G, | 
[V:1] cd!fermata!e2 | 
[V:2] EF!fermata!=G2 | 
[V:3] AA!fermata!A2 | 
[V:4] A,F,!fermata!C,2 | 
[V:1] fedc/B/ | 
[V:2] F^GA/B/ E/A/ | 
[V:3] dcc/B/ c/d/ | 
[V:4] D,E,F,/G,/A, | 
[V:1] B2!fermata!A2 | 
[V:2] AG!fermata!E2 | 
[V:3] ed/c/!fermata!c2 | 
[V:4] E,2!fermata!A,,2 | 
[V:1] cedc | 
[V:2] ABAA | 
[V:3] eefe | 
[V:4] A,G,F,/G,/A, | 
[V:1] BA!fermata!G2 | 
[V:2] GF!fermata!^E2 | 
[V:3] dc!fermata!c2 | 
[V:4] ^E,F,!fermata!C,2 | 
[V:1] ABcc/d//e// | 
[V:2] F=EEF | 
[V:3] cBA/B/c | 
[V:4] F,G,A,^A, | 
[V:1] d2!fermata!c2 | 
[V:2] F/A/ G/F/!fermata!G2 | 
[V:3] cB/=A/!fermata!B2 | 
[V:4] B,2!fermata!^E,2 | 
[V:1] c/B/ c/d/ed | 
[V:2] FFC/G/ A/B/ | 
[V:3] Aagf | 
[V:4] F,/G,/A,/B,/CF,/G,/ | 
[V:1] cB!fermata!c2 | 
[V:2] AG!fermata!A2 | 
[V:3] ee!fermata!e2 | 
[V:4] A,E,!fermata!A,,2 | 
[V:1] BBc/^d/e | 
[V:2] FEAB | 
[V:3] ^dee/f/=g | 
[V:4] A,G,=G,F,/E,/ | 
[V:1] e^d!fermata!e2 | 
[V:2] cB/A/!fermata!G2 | 
[V:3] fB!fermata!B2 | 
[V:4] ^A,,B,,!fermata!E,,2 | 
[V:1] ecf3/e/ | 
[V:2] GAA=G | 
[V:3] cc=cB/^A/ | 
[V:4] C,F,D,=G, | 
[V:1] dc/B/!fermata!B2 | 
[V:2] =G/F/E!fermata!D2 | 
[V:3] B^A!fermata!B2 | 
[V:4] E,F,!fermata!B,,2 | 
[V:1] cc/d//e//dc/B/ | 
[V:2] FE/F/GA | 
[V:3] AABE | 
[V:4] F,/E,/D,/C,/B,,C,/D,/ | 
[V:1] B2!fermata!A2 |]  
[V:2] A/F/G!fermata!E2 |]  
[V:3] ed//c//d/!fermata!c2 |]  
[V:4] E,2!fermata!A,,2 |]  



